public/svg/rules-and-payments.svg

<svg width="106" height="79" viewBox="0 0 106 79" fill="none" xmlns="http://www.w3.org/2000/svg">
<rect x="67.7656" y="10.3389" width="4.79883" height="8.95746" rx="2.39941" fill="#704FE6" stroke="#373737"/>
<rect x="67.7656" y="10.3389" width="4.79883" height="8.95746" rx="2.39941" fill="#704FE6" stroke="#373737"/>
<rect x="9.35938" y="16.4094" width="92.2656" height="62.5908" rx="8" fill="#F8F8F8"/>
<path fill-rule="evenodd" clip-rule="evenodd" d="M10.5283 75.1657C11.9335 77.4654 14.4674 79.0003 17.3597 79.0003H93.6254C98.0436 79.0003 101.625 75.4186 101.625 71.0003V24.4095C101.625 21.5422 100.117 19.0273 97.8503 17.6149C98.5917 18.8281 99.0189 20.2543 99.0189 21.7802V68.371C99.0189 72.7893 95.4372 76.371 91.0189 76.371H14.7533C13.2023 76.371 11.7544 75.9297 10.5283 75.1657Z" fill="#EBE8F1"/>
<rect x="9.85938" y="16.9094" width="91.2656" height="61.5908" rx="7.5" stroke="#373737"/>
<path fill-rule="evenodd" clip-rule="evenodd" d="M79.7871 35.9208C79.7871 34.264 78.444 32.9208 76.7871 32.9208H34.1977C32.5408 32.9208 31.1977 34.264 31.1977 35.9208V37.6412C31.1977 38.1806 31.745 38.5605 32.2844 38.5605H42.5117C44.2786 38.5605 45.711 39.9929 45.711 41.7599C45.711 43.5268 44.2786 44.9592 42.5117 44.9592H32.2844C31.745 44.9592 31.1977 45.3391 31.1977 45.8785V59.4888C31.1977 61.1456 32.5408 62.4888 34.1977 62.4888H76.7871C78.444 62.4888 79.7871 61.1456 79.7871 59.4888C79.7871 57.63 78.2802 56.1231 76.4214 56.1231H69.5431C67.7761 56.1231 66.3438 54.6907 66.3438 52.9238C66.3438 51.1568 67.7761 49.7245 69.5431 49.7245H78.0133C78.9929 49.7245 79.7871 48.9303 79.7871 47.9506V45.6045C79.7871 44.6533 78.1793 43.9174 77.2281 43.9174H62.62C60.8531 43.9174 59.4207 42.485 59.4207 40.718C59.4207 38.9511 60.8531 37.5187 62.62 37.5187H77.228C77.2579 37.5187 77.2877 37.5191 77.3174 37.5199C78.2397 37.5452 79.7871 36.8435 79.7871 35.9208ZM45.6962 57.3489C47.4632 57.3489 48.8956 55.9166 48.8956 54.1496C48.8956 52.3827 47.4632 50.9503 45.6962 50.9503H35.469C33.702 50.9503 32.2697 52.3827 32.2697 54.1496C32.2697 55.9166 33.702 57.3489 35.469 57.3489H45.6962Z" fill="#EBE8F1"/>
<rect x="4.375" y="34.7159" width="38.0068" height="28.8254" rx="4" fill="#704FE6"/>
<path fill-rule="evenodd" clip-rule="evenodd" d="M7.75879 35.1545C6.10194 35.1545 4.75879 36.4977 4.75879 38.1545V59.8153C4.75879 61.2401 5.75199 62.4329 7.08379 62.7391C6.8445 62.3083 6.70821 61.8123 6.70821 61.2845V39.9218C6.70821 38.265 8.05136 36.9218 9.70821 36.9218H39.7864C40.2495 36.9218 40.6881 37.0267 41.0796 37.2141C40.6851 36.0179 39.5584 35.1545 38.23 35.1545H7.75879Z" fill="#DEC8FE"/>
<rect x="4.875" y="35.2159" width="37.0068" height="27.8254" rx="3.5" stroke="#373737"/>
<rect x="8.81445" y="41.5125" width="30.2422" height="2.60016" rx="1.30008" fill="white"/>
<circle cx="36.5967" cy="57.7534" r="2.32715" fill="#FFC8FF"/>
<circle cx="33.8525" cy="57.7534" r="2.32715" fill="#FFC8FF"/>
<circle cx="33.8525" cy="57.7534" r="1.9" stroke="#373737" stroke-width="0.854297"/>
<circle cx="36.5967" cy="57.7534" r="1.9" stroke="#373737" stroke-width="0.854297"/>
<path d="M92.6182 11.7722L72.6055 11.7722C72.6055 13.2068 72.6058 14.1028 72.6058 15.6908V47.8959L74.9695 46.3084L77.3332 47.8959L79.6182 46.3084L82.0607 47.8959L84.3456 46.3084L86.4729 47.8959L88.8366 46.3084L91.3579 47.8959L93.7216 46.3084L96.1641 47.8959V15.2372C96.1641 11.3796 96.1641 11.7722 92.6182 11.7722Z" fill="#704FE6"/>
<path fill-rule="evenodd" clip-rule="evenodd" d="M71.4297 10.7483H92.6181C93.8001 10.6662 96.1641 11.2639 96.1641 14.3114V47.896L96.1637 47.8957V16.1947C96.1637 14.0701 96.1637 13.1595 95.714 12.7752C95.2966 12.4185 94.4918 12.5151 92.94 12.5151H74.7461C74.7461 13.1521 74.7462 13.6891 74.7462 14.2216C74.7463 14.9627 74.7464 15.6952 74.7464 16.6764V46.4175L72.6058 47.896V14.7779C72.6058 14.7437 72.6058 14.7096 72.6058 14.6758C72.6063 13.0919 72.6067 11.8544 71.4297 10.7483Z" fill="#DEC8FE"/>
<path d="M92.6182 10.3399H71.4297C72.6319 11.4822 72.6058 12.7629 72.6058 14.4138V47.8959L74.9695 46.2454L77.3332 47.8959L79.6181 46.2454L82.0606 47.8959L84.3455 46.2454L86.4729 47.8959L88.8366 46.2454L91.3579 47.8959L93.7216 46.2454L96.1641 47.8959V13.9422C96.1641 10.8613 93.8001 10.257 92.6182 10.3399Z" stroke="#373737"/>
<rect x="78.3643" y="19.7963" width="8.93457" height="0.989258" rx="0.494629" fill="white"/>
<rect x="78.3643" y="23.6713" width="14.2676" height="0.989258" rx="0.494629" fill="white"/>
<rect x="78.3643" y="27.5465" width="14.2676" height="0.989258" rx="0.494629" fill="white"/>
<rect x="78.3643" y="31.4218" width="14.2676" height="0.989258" rx="0.494629" fill="white"/>
<path fill-rule="evenodd" clip-rule="evenodd" d="M87.8373 73.7631C92.9009 73.7631 97.0057 69.6583 97.0057 64.5948C97.0057 59.5312 92.9009 55.4264 87.8373 55.4264C82.7738 55.4264 78.6689 59.5312 78.6689 64.5948C78.6689 69.6583 82.7738 73.7631 87.8373 73.7631ZM87.8369 67.6407C89.5191 67.6407 90.8828 66.277 90.8828 64.5948C90.8828 62.9126 89.5191 61.5489 87.8369 61.5489C86.1547 61.5489 84.791 62.9126 84.791 64.5948C84.791 66.277 86.1547 67.6407 87.8369 67.6407Z" fill="#DEC8FE"/>
<path fill-rule="evenodd" clip-rule="evenodd" d="M96.9755 65.3441C96.9955 65.0969 97.0057 64.847 97.0057 64.5948C97.0057 59.5312 92.9009 55.4264 87.8373 55.4264C82.7738 55.4264 78.6689 59.5312 78.6689 64.5948C78.6689 68.5275 81.145 71.8818 84.6233 73.184C82.1709 71.7561 80.5225 69.0988 80.5225 66.0565C80.5225 61.5047 84.2124 57.8148 88.7642 57.8148C93.0759 57.8148 96.6143 61.1259 96.9755 65.3441Z" fill="#F2EAFE"/>
<circle cx="87.8373" cy="64.5948" r="8.66837" stroke="#373737"/>
<circle cx="87.837" cy="64.5948" r="2.75009" stroke="#373737"/>
<rect x="87.4326" y="58.4016" width="0.806641" height="2.65277" rx="0.40332" fill="#373737"/>
<rect x="91.3057" y="65.0693" width="0.806641" height="2.65277" rx="0.40332" transform="rotate(-90 91.3057 65.0693)" fill="#373737"/>
<rect x="81.7148" y="65.0693" width="0.806641" height="2.65277" rx="0.40332" transform="rotate(-90 81.7148 65.0693)" fill="#373737"/>
<rect x="87.4326" y="68.1353" width="0.806641" height="2.65277" rx="0.40332" fill="#373737"/>
</svg>

<svg width="106" height="79" viewBox="0 0 106 79" fill="none" xmlns="http://www.w3.org/2000/svg"><rect x="67.766" y="10.339" width="4.799" height="8.957" rx="2.399" fill="#704FE6" stroke="#373737"/><rect x="67.766" y="10.339" width="4.799" height="8.957" rx="2.399" fill="#704FE6" stroke="#373737"/><rect x="9.359" y="16.409" width="92.266" height="62.591" rx="8" fill="#F8F8F8"/><path fill-rule="evenodd" clip-rule="evenodd" d="M10.528 75.166A7.995 7.995 0 0 0 17.36 79h76.265a8 8 0 0 0 8-8V24.41a7.994 7.994 0 0 0-3.775-6.795 7.962 7.962 0 0 1 1.169 4.165v46.591a8 8 0 0 1-8 8H14.753a7.963 7.963 0 0 1-4.225-1.205Z" fill="#EBE8F1"/><rect x="9.859" y="16.909" width="91.266" height="61.591" rx="7.5" stroke="#373737"/><path fill-rule="evenodd" clip-rule="evenodd" d="M79.787 35.92a3 3 0 0 0-3-3h-42.59a3 3 0 0 0-3 3v1.721c0 .54.548.92 1.087.92h10.228a3.2 3.2 0 0 1 0 6.398H32.284c-.539 0-1.086.38-1.086.92v13.61a3 3 0 0 0 3 3h42.59a3 3 0 0 0 3-3 3.366 3.366 0 0 0-3.367-3.366h-6.878a3.2 3.2 0 1 1 0-6.398h8.47c.98 0 1.774-.795 1.774-1.774v-2.346c0-.952-1.608-1.688-2.559-1.688H62.62a3.2 3.2 0 0 1 0-6.398h14.698c.922.026 2.47-.675 2.47-1.598ZM45.697 57.35a3.2 3.2 0 1 0 0-6.399H35.468a3.2 3.2 0 1 0 0 6.399h10.227Z" fill="#EBE8F1"/><rect x="4.375" y="34.716" width="38.007" height="28.825" rx="4" fill="#704FE6"/><path fill-rule="evenodd" clip-rule="evenodd" d="M7.759 35.154a3 3 0 0 0-3 3v21.661c0 1.425.993 2.618 2.325 2.924a2.987 2.987 0 0 1-.376-1.454V39.922a3 3 0 0 1 3-3h30.078c.463 0 .902.105 1.294.292a3.001 3.001 0 0 0-2.85-2.06H7.759Z" fill="#DEC8FE"/><rect x="4.875" y="35.216" width="37.007" height="27.825" rx="3.5" stroke="#373737"/><rect x="8.814" y="41.513" width="30.242" height="2.6" rx="1.3" fill="#fff"/><circle cx="36.597" cy="57.753" r="2.327" fill="#FFC8FF"/><circle cx="33.852" cy="57.753" r="2.327" fill="#FFC8FF"/><circle cx="33.852" cy="57.753" r="1.9" stroke="#373737" stroke-width=".854"/><circle cx="36.597" cy="57.753" r="1.9" stroke="#373737" stroke-width=".854"/><path d="M92.618 11.772H72.606V47.896l2.364-1.588 2.363 1.588 2.285-1.588 2.443 1.588 2.285-1.588 2.127 1.588 2.364-1.588 2.52 1.588 2.365-1.588 2.442 1.588V15.237c0-3.857 0-3.465-3.546-3.465Z" fill="#704FE6"/><path fill-rule="evenodd" clip-rule="evenodd" d="M71.43 10.748h21.188c1.182-.082 3.546.516 3.546 3.563v33.585-31.701c0-2.125 0-3.036-.45-3.42-.417-.357-1.222-.26-2.774-.26H74.746v33.902l-2.14 1.479v-33.22c0-1.584 0-2.822-1.176-3.928Z" fill="#DEC8FE"/><path d="M92.618 10.34H71.43c1.202 1.142 1.176 2.423 1.176 4.074v33.482l2.364-1.65 2.363 1.65 2.285-1.65 2.443 1.65 2.284-1.65 2.128 1.65 2.364-1.65 2.52 1.65 2.365-1.65 2.442 1.65V13.942c0-3.08-2.364-3.685-3.546-3.602Z" stroke="#373737"/><rect x="78.364" y="19.796" width="8.935" height=".989" rx=".495" fill="#fff"/><rect x="78.364" y="23.671" width="14.268" height=".989" rx=".495" fill="#fff"/><rect x="78.364" y="27.547" width="14.268" height=".989" rx=".495" fill="#fff"/><rect x="78.364" y="31.422" width="14.268" height=".989" rx=".495" fill="#fff"/><path fill-rule="evenodd" clip-rule="evenodd" d="M87.837 73.763a9.168 9.168 0 1 0 0-18.337 9.168 9.168 0 0 0 0 18.337Zm0-6.122a3.046 3.046 0 1 0 0-6.092 3.046 3.046 0 0 0 0 6.092Z" fill="#DEC8FE"/><path fill-rule="evenodd" clip-rule="evenodd" d="M96.975 65.344a9.168 9.168 0 1 0-18.307-.75 9.172 9.172 0 0 0 5.955 8.59 8.242 8.242 0 1 1 12.352-7.84Z" fill="#F2EAFE"/><circle cx="87.837" cy="64.595" r="8.668" stroke="#373737"/><circle cx="87.837" cy="64.595" r="2.75" stroke="#373737"/><rect x="87.433" y="58.402" width=".807" height="2.653" rx=".403" fill="#373737"/><rect x="91.306" y="65.069" width=".807" height="2.653" rx=".403" transform="rotate(-90 91.306 65.07)" fill="#373737"/><rect x="81.715" y="65.069" width=".807" height="2.653" rx=".403" transform="rotate(-90 81.715 65.07)" fill="#373737"/><rect x="87.433" y="68.135" width=".807" height="2.653" rx=".403" fill="#373737"/></svg>
